X:175
T:Miss Neighbours Fancy. THO4.175
A:England; London
O:
M:6/8
L:1/8
Z:vmp. Peter Dunk 2010/11.from a transcription by Fynn Titford-Mock 2007
B:Thompson's Compleat Coll. of 200 Favourite Country Dances Vol.IV. 1773-80
Q:3/8=100
K:G
B/A/|GBd GBd|gdB gdB|GBd GBd|AFD AFD|
GBd GBd|gdB gdB|ecA dBG|cAF G2:|
|:A/B/|G2 b bge|bge bge|F2 a afd|afd afd|
G2 b bge|bge bge|gbg afd|ge^c d3/2(=c/B/A/)|
GBd GBd|gdB gdB|GBd GBd|AFD AFD|
Gbg Faf|Ege dBG|cec BdB|cAF G2:|

